public/images/home/docker.svg

<svg width="149" height="40" viewBox="0 0 149 40" fill="none" xmlns="http://www.w3.org/2000/svg">
<path d="M70.3765 12.1624C69.5851 12.137 68.9421 12.77 68.9173 13.5549L68.9173 20.8465C65.5291 18.0615 60.5581 18.6185 57.8377 22.0871C56.7248 23.5302 56.1065 25.3025 56.1065 27.1507C56.0323 31.6067 59.4947 35.2779 63.8474 35.3538C68.2001 35.4298 71.7862 31.8852 71.8603 27.4292L71.8603 13.6561C71.8603 13.251 71.712 12.8713 71.4399 12.5928C71.1431 12.3143 70.7722 12.1624 70.3765 12.1624ZM68.5216 29.1002C68.027 30.3155 67.0872 31.2776 65.9001 31.8093C64.6635 32.341 63.2786 32.341 62.042 31.8093C60.8549 31.3029 59.9398 30.3155 59.4452 29.1255C58.9259 27.885 58.9259 26.4671 59.4452 25.2012C59.9398 23.986 60.8796 23.0239 62.042 22.5175C63.2786 21.9858 64.6635 21.9858 65.9001 22.5175C67.0872 23.0492 68.027 24.0113 68.5216 25.2265C69.041 26.4418 69.041 27.8596 68.5216 29.1002ZM86.8228 21.4541C83.7561 18.3147 78.7604 18.3147 75.6937 21.4541C74.2098 22.9732 73.3937 25.024 73.3937 27.1507C73.3195 31.6067 76.7819 35.2779 81.1346 35.3538C85.4873 35.4298 89.0734 31.8852 89.1476 27.4292L89.1475 27.1507C89.1475 26.0874 88.9497 25.0493 88.554 24.0619C88.1583 23.0745 87.5647 22.1884 86.8228 21.4541ZM85.8088 29.0749C85.5615 29.6825 85.1905 30.2142 84.7454 30.67C84.3002 31.1257 83.7561 31.5055 83.1873 31.7586C81.9507 32.2903 80.5658 32.2903 79.3292 31.7586C78.1421 31.2523 77.2023 30.2649 76.7077 29.0749C76.1883 27.8343 76.1883 26.4165 76.7077 25.1506C77.2023 23.9353 78.1421 22.9985 79.3292 22.4669C80.5658 21.9352 81.9507 21.9352 83.1873 22.4669C83.7808 22.72 84.3002 23.0998 84.7454 23.5555C85.1905 24.0113 85.5615 24.5683 85.8088 25.1506C86.3282 26.4418 86.3282 27.8596 85.8088 29.0749ZM119.394 20.568C119.394 20.3654 119.345 20.1629 119.27 19.9857C119.196 19.8084 119.072 19.6565 118.949 19.5046C118.825 19.378 118.652 19.2514 118.479 19.1755C118.306 19.0995 118.108 19.0489 117.91 19.0489C117.638 19.0489 117.366 19.1249 117.119 19.2768L108.71 24.8721L108.71 13.6814C108.71 13.2764 108.562 12.8966 108.29 12.6181C108.018 12.3396 107.647 12.1624 107.251 12.1624C106.435 12.1624 105.792 12.8206 105.767 13.6561L105.767 33.6828C105.767 34.0879 105.915 34.4677 106.187 34.7462C106.459 35.05 106.83 35.2019 107.226 35.2019C107.622 35.2019 107.993 35.05 108.265 34.7462C108.537 34.4677 108.71 34.0879 108.685 33.6828L108.685 28.4926L110.392 27.3533L116.896 34.8221C117.168 35.0753 117.514 35.2272 117.885 35.2019C118.083 35.2019 118.281 35.1766 118.454 35.0753C118.627 34.9994 118.776 34.8981 118.924 34.7462C119.048 34.5943 119.171 34.4424 119.246 34.2651C119.32 34.0879 119.369 33.8854 119.369 33.6828C119.369 33.303 119.221 32.9233 118.974 32.6448L112.939 25.6823L118.825 21.7579C119.221 21.5048 119.419 21.049 119.394 20.568ZM94.9841 23.5555C95.4293 23.0998 95.9734 22.72 96.567 22.4669C97.1852 22.2137 97.8283 22.0618 98.496 22.0618C99.0896 22.0618 99.6584 22.163 100.202 22.3656C100.747 22.5934 101.266 22.8973 101.711 23.3024C101.983 23.5302 102.329 23.6315 102.676 23.6315C103.071 23.6568 103.467 23.5049 103.739 23.2011C104.011 22.9226 104.159 22.5175 104.159 22.1124C104.159 21.682 103.986 21.2516 103.64 20.9731C102.23 19.6819 100.4 18.9729 98.496 19.0236C94.1433 19.0236 90.6067 22.6441 90.6067 27.1001C90.6067 31.5561 94.1186 35.1513 98.4465 35.1766C100.351 35.1766 102.181 34.493 103.615 33.2271C103.912 32.9486 104.085 32.5435 104.085 32.1131C104.11 31.3029 103.492 30.6446 102.725 30.6193L102.626 30.6193C102.28 30.6193 101.958 30.7206 101.686 30.9231C101.241 31.3282 100.747 31.632 100.202 31.8599C99.6584 32.0625 99.0648 32.1637 98.496 32.1637C97.8283 32.1637 97.1852 32.0371 96.567 31.7586C95.9734 31.5055 95.454 31.1257 94.9841 30.67C93.0551 28.6951 93.0551 25.505 94.9594 23.5302C94.9841 23.5809 94.9841 23.5809 94.9841 23.5555ZM148.602 20.0869C148.305 19.8084 147.983 19.6059 147.612 19.4793C147.192 19.3274 146.747 19.2261 146.302 19.1755C145.857 19.1249 145.411 19.0995 144.966 19.0995C144.076 19.0995 143.161 19.2514 142.32 19.5806C141.479 19.8844 140.712 20.3401 140.02 20.8971L140.02 20.5933C139.995 19.7578 139.303 19.1249 138.487 19.1502C138.117 19.1628 137.765 19.3189 137.503 19.5869C137.242 19.8548 137.089 20.2146 137.077 20.5933L137.077 33.7335C137.102 34.569 137.794 35.2019 138.61 35.1766C138.98 35.164 139.332 35.0079 139.593 34.7399C139.855 34.472 140.008 34.1122 140.02 33.7335L140.02 27.176C140.02 26.4924 140.144 25.8342 140.416 25.2012C140.663 24.5936 141.009 24.0619 141.479 23.6062C141.924 23.1504 142.468 22.7707 143.037 22.5175C143.655 22.2643 144.298 22.1124 144.966 22.1124C145.634 22.1124 146.277 22.239 146.895 22.4669C147.093 22.5681 147.291 22.6188 147.514 22.6188C147.711 22.6188 147.909 22.5934 148.082 22.4922C148.255 22.4162 148.404 22.3149 148.552 22.163C148.676 22.0364 148.8 21.8592 148.874 21.682C148.948 21.5048 148.997 21.3022 148.997 21.0997C149.022 20.7199 148.874 20.3654 148.602 20.0869ZM134.95 24.0619C133.689 21.0744 130.82 19.1249 127.654 19.0995C123.302 19.0995 119.79 22.6947 119.765 27.1507C119.765 31.6067 123.302 35.2272 127.654 35.2272C129.534 35.2272 131.364 34.5436 132.798 33.2777L132.848 33.2271C132.971 33.1258 133.095 32.9992 133.169 32.8473C133.639 32.1384 133.466 31.2016 132.798 30.7206C132.23 30.3408 131.488 30.4168 130.993 30.8978C130.944 30.9485 130.795 31.075 130.795 31.1004L130.77 31.1257C130.35 31.4801 129.88 31.784 129.361 31.9612C128.817 32.1637 128.248 32.265 127.654 32.2397C127.11 32.2397 126.591 32.1637 126.071 31.9865C125.577 31.8093 125.107 31.5814 124.686 31.2523C124.266 30.9485 123.895 30.5687 123.598 30.1383C123.277 29.7079 123.054 29.2015 122.906 28.6951L134.035 28.6951C134.431 28.6951 134.802 28.5432 135.074 28.2647C135.37 27.9862 135.519 27.6064 135.494 27.2014C135.519 26.1127 135.321 25.0493 134.95 24.0619ZM122.906 25.6823C123.054 25.1506 123.277 24.6695 123.598 24.2391C123.895 23.8087 124.266 23.4289 124.686 23.1251C125.107 22.8213 125.577 22.5681 126.071 22.3909C126.566 22.2137 127.11 22.1377 127.63 22.1377C128.149 22.1377 128.693 22.2137 129.188 22.3909C130.177 22.72 131.042 23.3783 131.661 24.2391C131.982 24.6695 132.205 25.1759 132.378 25.6823L122.906 25.6823ZM143.581 33.0245C143.012 33.0245 142.567 33.5056 142.567 34.0879C142.567 34.6702 143.037 35.126 143.606 35.126C144.175 35.126 144.62 34.6449 144.62 34.0879C144.62 33.4803 144.15 33.0245 143.581 33.0245ZM143.581 34.8981C143.136 34.9234 142.765 34.569 142.74 34.1132C142.716 33.6575 143.062 33.2777 143.507 33.2524C143.952 33.2271 144.323 33.5815 144.348 34.0373L144.348 34.0879C144.373 34.5183 144.026 34.8981 143.606 34.8981L143.581 34.8981Z" fill="#0091E2"/>
<path d="M143.829 34.0874C143.952 34.0621 144.027 33.9608 144.027 33.8342C144.027 33.733 144.002 33.657 143.928 33.6064C143.829 33.5557 143.705 33.5304 143.582 33.5304C143.458 33.5304 143.309 33.5304 143.186 33.5557L143.186 34.5938L143.408 34.5938L143.408 34.1887L143.507 34.1887C143.631 34.1887 143.705 34.2393 143.73 34.3406C143.755 34.4166 143.779 34.5178 143.804 34.5938L144.051 34.5938C144.002 34.5178 143.977 34.4166 143.977 34.3406C144.002 34.2393 143.928 34.1381 143.829 34.0874ZM143.532 34.0115L143.408 34.0115L143.408 33.7077L143.532 33.7077C143.68 33.7077 143.755 33.7836 143.755 33.8596C143.779 33.9608 143.656 34.0368 143.532 34.0115ZM53.411 15.5545C53.2626 15.4279 51.9271 14.3899 49.0583 14.3899C48.3163 14.3899 47.5496 14.4658 46.8077 14.5924C46.2636 10.7187 43.1227 8.8452 42.9991 8.74393L42.2324 8.2882L41.7378 9.02243C41.1195 10.0098 40.6496 11.1238 40.3775 12.2632C39.8582 14.4658 40.1797 16.5419 41.2679 18.3142C39.9571 19.0737 37.8302 19.251 37.3851 19.2763L2.26652 19.2763C1.35146 19.2763 0.609522 20.0358 0.609522 20.9726C0.560059 24.1121 1.07942 27.2515 2.14287 30.2137C3.3547 33.4545 5.16009 35.8597 7.48484 37.3282C10.1064 38.9738 14.3849 39.9106 19.2075 39.9106C21.3839 39.9106 23.5602 39.7081 25.7119 39.303C28.7044 38.746 31.5732 37.6826 34.2194 36.1382C36.3958 34.847 38.3496 33.2013 40.0066 31.2771C42.8012 28.0617 44.4582 24.4665 45.6701 21.2764L46.1647 21.2764C49.2067 21.2764 51.0862 20.0358 52.1249 18.9725C52.8174 18.3142 53.3368 17.504 53.7078 16.5926L53.9303 15.9343L53.411 15.5545Z" fill="#0091E2"/>
<path d="M5.53164 18.2385L10.2306 18.2385C10.4532 18.2385 10.651 18.0613 10.651 17.8081L10.651 13.504C10.651 13.2762 10.4779 13.0736 10.2306 13.0736L5.53164 13.0736C5.30906 13.0736 5.11121 13.2508 5.11121 13.504L5.11121 17.8081C5.13594 18.0613 5.30906 18.2385 5.53164 18.2385ZM12.0112 18.2385L16.7102 18.2385C16.9328 18.2385 17.1306 18.0613 17.1306 17.8081L17.1306 13.504C17.1306 13.2762 16.9575 13.0736 16.7102 13.0736L12.0112 13.0736C11.7886 13.0736 11.5908 13.2508 11.5908 13.504L11.5908 17.8081C11.6155 18.0613 11.7887 18.2385 12.0112 18.2385ZM18.6145 18.2385L23.3134 18.2385C23.536 18.2385 23.7339 18.0613 23.7339 17.8081L23.7339 13.504C23.7339 13.2762 23.5607 13.0736 23.3134 13.0736L18.6145 13.0736C18.3919 13.0736 18.194 13.2508 18.194 13.504L18.194 17.8081C18.194 18.0613 18.3672 18.2385 18.6145 18.2385ZM25.1188 18.2385L29.8177 18.2385C30.0403 18.2385 30.2382 18.0613 30.2382 17.8081L30.2382 13.504C30.2382 13.2762 30.0651 13.0736 29.8177 13.0736L25.1188 13.0736C24.8962 13.0736 24.6984 13.2508 24.6984 13.504L24.6984 17.8081C24.6984 18.0613 24.8962 18.2385 25.1188 18.2385ZM12.0112 12.0862L16.7102 12.0862C16.9328 12.0862 17.1306 11.8837 17.1306 11.6558L17.1306 7.3517C17.1306 7.12384 16.9575 6.92129 16.7102 6.92129L12.0112 6.92129C11.7886 6.92129 11.5908 7.09852 11.5908 7.3517L11.5908 11.6558C11.6155 11.8837 11.7886 12.0862 12.0112 12.0862ZM18.6145 12.0862L23.3134 12.0862C23.536 12.0862 23.7339 11.8837 23.7339 11.6558L23.7339 7.3517C23.7339 7.12384 23.5607 6.92129 23.3134 6.92129L18.6145 6.92129C18.3919 6.92129 18.194 7.09852 18.194 7.3517L18.194 11.6558C18.194 11.8837 18.3672 12.0862 18.6145 12.0862ZM25.1188 12.0862L29.8177 12.0862C30.0403 12.0862 30.2382 11.8837 30.2382 11.6558L30.2382 7.3517C30.2382 7.12383 30.0403 6.92129 29.8177 6.92129L25.1188 6.92129C24.8962 6.92129 24.6984 7.09852 24.6984 7.3517L24.6984 11.6558C24.6984 11.8837 24.8962 12.0862 25.1188 12.0862ZM25.1188 5.90856L29.8177 5.90856C30.0403 5.90856 30.2382 5.73134 30.2382 5.47815L30.2382 1.17406C30.2382 0.946199 30.0403 0.74365 29.8177 0.74365L25.1188 0.743651C24.8962 0.743651 24.6984 0.920881 24.6984 1.17406L24.6984 5.47815C24.6984 5.70602 24.8962 5.90856 25.1188 5.90856ZM31.6726 18.2385L36.3715 18.2385C36.5941 18.2385 36.792 18.0613 36.792 17.8081L36.792 13.504C36.792 13.2762 36.6188 13.0736 36.3715 13.0736L31.6726 13.0736C31.45 13.0736 31.2522 13.2508 31.2522 13.504L31.2522 17.8081C31.2769 18.0613 31.45 18.2385 31.6726 18.2385Z" fill="#0091E2"/>
</svg>

<svg xmlns="http://www.w3.org/2000/svg" width="149" height="40" fill="#0091e2" xmlns:v="https://vecta.io/nano"><path d="M70.377 12.162c-.791-.025-1.434.608-1.459 1.393v7.292c-3.388-2.785-8.359-2.228-11.08 1.241-1.113 1.443-1.731 3.215-1.731 5.064-.074 4.456 3.388 8.127 7.741 8.203s7.939-3.469 8.013-7.925V13.656a1.51 1.51 0 0 0-.42-1.063 1.54 1.54 0 0 0-1.063-.43zM68.522 29.1a5.05 5.05 0 0 1-2.622 2.709c-1.237.532-2.621.532-3.858 0-1.187-.506-2.102-1.494-2.597-2.684-.519-1.24-.519-2.658 0-3.924a4.96 4.96 0 0 1 2.597-2.684c1.237-.532 2.621-.532 3.858 0a5.05 5.05 0 0 1 2.622 2.709 5.01 5.01 0 0 1 0 3.874zm18.301-7.646c-3.067-3.139-8.062-3.139-11.129 0-1.484 1.519-2.3 3.57-2.3 5.697-.074 4.456 3.388 8.127 7.741 8.203s7.939-3.469 8.013-7.925v-.279a8.26 8.26 0 0 0-.593-3.089c-.396-.987-.989-1.873-1.731-2.608zm-1.014 7.621a4.97 4.97 0 0 1-1.063 1.595 5.13 5.13 0 0 1-1.558 1.089c-1.237.532-2.621.532-3.858 0-1.187-.506-2.127-1.494-2.621-2.684-.519-1.241-.519-2.658 0-3.924.495-1.215 1.434-2.152 2.621-2.684 1.237-.532 2.621-.532 3.858 0 .594.253 1.113.633 1.558 1.089s.816 1.013 1.063 1.595c.519 1.291.519 2.709 0 3.924zm33.585-8.507c0-.203-.049-.405-.124-.582s-.198-.329-.321-.481a1.59 1.59 0 0 0-.47-.329c-.173-.076-.371-.127-.569-.127-.272 0-.544.076-.791.228l-8.409 5.595V13.681a1.51 1.51 0 0 0-.42-1.063c-.272-.278-.643-.456-1.039-.456-.816 0-1.459.658-1.484 1.494v20.027a1.51 1.51 0 0 0 .42 1.063 1.37 1.37 0 0 0 1.039.456 1.37 1.37 0 0 0 1.039-.456c.272-.279.445-.658.42-1.063v-5.19l1.707-1.139 6.504 7.469c.272.253.618.405.989.38.198 0 .396-.025.569-.127.173-.076.322-.177.47-.329.124-.152.247-.304.322-.481s.123-.38.123-.582a1.59 1.59 0 0 0-.395-1.038l-6.035-6.962 5.886-3.924c.396-.253.594-.709.569-1.19zm-24.41 2.987c.445-.456.989-.835 1.583-1.089.618-.253 1.261-.405 1.929-.405.594 0 1.162.101 1.706.304.545.228 1.064.532 1.509.937a1.49 1.49 0 0 0 .965.329c.395.025.791-.127 1.063-.43.272-.279.42-.684.42-1.089 0-.43-.173-.861-.519-1.139-1.41-1.291-3.24-2-5.144-1.95-4.353 0-7.889 3.621-7.889 8.077s3.512 8.051 7.84 8.076c1.904 0 3.734-.684 5.168-1.95.297-.279.47-.684.47-1.114.025-.81-.593-1.469-1.36-1.494h-.099a1.55 1.55 0 0 0-.94.304 5.09 5.09 0 0 1-1.484.937c-.544.203-1.137.304-1.706.304-.668 0-1.311-.127-1.929-.405-.594-.253-1.113-.633-1.583-1.089-1.929-1.975-1.929-5.165-.025-7.14.025.051.025.051.025.025zm53.618-3.469c-.297-.279-.619-.481-.99-.608-.42-.152-.865-.253-1.31-.304s-.891-.076-1.336-.076a7.31 7.31 0 0 0-2.646.481c-.841.304-1.608.759-2.3 1.316v-.304c-.025-.835-.717-1.468-1.533-1.443-.37.013-.722.169-.984.437a1.51 1.51 0 0 0-.426 1.006v13.14c.025.836.717 1.468 1.533 1.443a1.44 1.44 0 0 0 .983-.437 1.51 1.51 0 0 0 .427-1.006v-6.558a4.94 4.94 0 0 1 .396-1.975 4.59 4.59 0 0 1 1.063-1.595c.445-.456.989-.835 1.558-1.089.618-.253 1.261-.405 1.929-.405s1.311.127 1.929.354a1.32 1.32 0 0 0 .619.152c.197 0 .395-.025.568-.127.173-.076.322-.177.47-.329.124-.127.248-.304.322-.481s.123-.38.123-.582c.025-.38-.123-.734-.395-1.013zm-13.652 3.975c-1.261-2.988-4.13-4.937-7.296-4.962-4.352 0-7.864 3.595-7.889 8.051 0 4.456 3.537 8.077 7.889 8.077a7.77 7.77 0 0 0 5.144-1.95l.05-.051a1.19 1.19 0 0 0 .321-.38c.47-.709.297-1.646-.371-2.127a1.43 1.43 0 0 0-1.805.177c-.049.051-.198.177-.198.203l-.025.025c-.42.354-.89.658-1.409.836-.544.202-1.113.304-1.707.278-.544 0-1.063-.076-1.583-.253-.494-.177-.964-.405-1.385-.734-.42-.304-.791-.684-1.088-1.114-.321-.43-.544-.937-.692-1.443h11.129a1.44 1.44 0 0 0 1.039-.43c.296-.279.445-.658.42-1.063a8.38 8.38 0 0 0-.544-3.139zm-12.044 1.62a4.31 4.31 0 0 1 .692-1.443c.297-.43.668-.81 1.088-1.114s.891-.557 1.385-.734 1.039-.253 1.559-.253a4.68 4.68 0 0 1 1.558.253c.989.329 1.854.987 2.473 1.848.321.43.544.937.717 1.443h-9.472zm20.675 7.342c-.569 0-1.014.481-1.014 1.063s.47 1.038 1.039 1.038 1.014-.481 1.014-1.038c0-.608-.47-1.063-1.039-1.063zm0 1.874c-.445.025-.816-.329-.841-.785s.322-.835.767-.861.816.329.841.785v.051c.025.43-.322.81-.742.81h-.025z"/><path d="M143.829 34.087c.123-.025.198-.127.198-.253 0-.101-.025-.177-.099-.228a.77.77 0 0 0-.346-.076c-.123 0-.273 0-.396.025v1.038h.222v-.405h.099c.124 0 .198.051.223.152l.074.253h.247a.5.5 0 0 1-.074-.253c.025-.101-.049-.203-.148-.253zm-.297-.076h-.124v-.304h.124c.148 0 .223.076.223.152.024.101-.099.177-.223.152zM53.411 15.555c-.148-.127-1.484-1.165-4.353-1.165a13.52 13.52 0 0 0-2.251.202c-.544-3.874-3.685-5.747-3.809-5.848l-.767-.456-.495.734a10.96 10.96 0 0 0-1.36 3.241c-.519 2.203-.198 4.279.89 6.051-1.311.759-3.438.937-3.883.962H2.267c-.915 0-1.657.759-1.657 1.696-.049 3.14.47 6.279 1.533 9.241 1.212 3.241 3.017 5.646 5.342 7.115 2.622 1.646 6.9 2.582 11.723 2.582 2.176 0 4.353-.203 6.504-.608a26.45 26.45 0 0 0 8.508-3.165 23.41 23.41 0 0 0 5.787-4.861c2.795-3.215 4.452-6.811 5.663-10.001h.495c3.042 0 4.921-1.241 5.96-2.304.693-.658 1.212-1.468 1.583-2.38l.223-.658-.519-.38zM5.532 18.239h4.699a.42.42 0 0 0 .42-.43v-4.304c0-.228-.173-.43-.42-.43H5.532a.42.42 0 0 0-.42.43v4.304c.025.253.198.43.42.43zm6.48 0h4.699a.42.42 0 0 0 .42-.43v-4.304c0-.228-.173-.43-.42-.43h-4.699a.42.42 0 0 0-.42.43v4.304c.025.253.198.43.42.43zm6.603 0h4.699a.42.42 0 0 0 .42-.43v-4.304c0-.228-.173-.43-.42-.43h-4.699a.42.42 0 0 0-.421.43v4.304c0 .253.173.43.421.43zm6.504 0h4.699a.42.42 0 0 0 .421-.43v-4.304c0-.228-.173-.43-.421-.43h-4.699a.42.42 0 0 0-.42.43v4.304a.42.42 0 0 0 .42.43zm-13.108-6.152h4.699a.44.44 0 0 0 .42-.43V7.352c0-.228-.173-.43-.42-.43h-4.699a.42.42 0 0 0-.42.43v4.304c.025.228.198.43.42.43zm6.603 0h4.699a.44.44 0 0 0 .42-.43V7.352c0-.228-.173-.43-.42-.43h-4.699a.42.42 0 0 0-.421.43v4.304c0 .228.173.43.421.43zm6.504 0h4.699a.44.44 0 0 0 .421-.43V7.352a.44.44 0 0 0-.421-.43h-4.699a.42.42 0 0 0-.42.43v4.304a.44.44 0 0 0 .42.43zm0-6.178h4.699a.42.42 0 0 0 .421-.43V1.174a.44.44 0 0 0-.421-.43h-4.699a.42.42 0 0 0-.42.43v4.304a.44.44 0 0 0 .42.43zm6.554 12.33h4.699a.42.42 0 0 0 .421-.43v-4.304c0-.228-.173-.43-.421-.43h-4.699a.42.42 0 0 0-.42.43v4.304c.025.253.198.43.42.43z"/></svg>
